!!!OTL: Zu Stra&szlig;burg, zu Stra&szlig;burg (3-36), S. 113
!!!id: P1008
**kern
*clefG2
*k[b-]
*F:
{8c
=1
4f
8e
8f
=2
4g
8f}
=3
{8g
=4
8a
8f
8cc
8a
=5
4g}
8r
=6
{8g
=7
8b-
8dd
8dd
8dd
=8
8cc
8a
8f}
=9
{8cc
=10
8cc
8cc
16b-
16b-
8g
=11
8f
8a
8cc}
=12
{8b-
=13
8dd
8dd
8dd
8dd
=14
8cc
8a
8f}
=15
{8cc
=16
8cc
8cc
16b-
16b-
8g
=17
4f}
8r
==
*-
!!!minrhy: 16
!!!meters: 2/4 ]  ZZ[6
!!!cut: Zu Stra&szlig;burg, zu Stra&szlig;burg (3-36), S. 113
!!!reg: Lothringen
!!!trd: PINCK, Louis: Verklingende Weisen, Bd3, Metz 1933
!!!rhy1: X_  X__X_X_  X__X_   (x2)
!!!rhy2: X_  X_X_X_X_  X__0
!!!key: P1008  16  F 2/4 ]  ZZ[6
!!!mod: HEPTATONIK IONISCH]  AMBITUS[9
!!!kad: 121511
!!!akz: 12_32_45_51_65_51_
!!!fot: 'a__b__c__as"cw_a__
!!!for: 'a__b__bw_c__bw_cw_
!!!fok: '/__^__^d_V__^d_\__
!! PHRAS[AUFTAKTIG]
!!!fkt: Soldatenlied
!! LOTH VKL
!! PR[10] 2K[6] 2G[31] 3K[4] 3G[0] 4A[4] 4Ü[0] 5A[0] 6K[0] 6G[0]
!! 7K[0] 7G[0] 8A[0] MEHR[0] SI[44] ABS[52] SR[37] SP[8]
!! ST[14] 2k[12] 2g[35] 3k[0] 3g[0] 4d[0] 4ü[0] 5d[0] 6k[0] 6g[0]
!! 7k[0] 7g[0] 8d[0] mehr[0] si[46] dm[-2] sr[46] sp[0]
!! 1F[27] 2F[57] 3F[11] 4F[0] LF[0] 2P[5] 3P[0] 4P[0] TRI[0] DF[4] AB[56]
!! TF[0] U3K[0] U3[0] U4[0] U4Ü[0] U5[2] U6K[0] U6[0] U7K[0] U7[2]
!! N1[17] N2K[0] N2[26] N3K[0] N3[26] N4[13] N4Ü[0] N5[11] N6K[0] N6[2]
!!!n7k: 0] N7[0] O1[0] O2K[0] O2[0] O3K[0] O3[0] HÖ[0
!!!RNB: symbol: &szlig; = sz ligature (UTF-8: ÃŸ)
